packages/icons/svg/Outline/droplet.svg

<svg fill="none" height="24" viewBox="0 0 24 24" width="24" xmlns="http://www.w3.org/2000/svg"><path clip-rule="evenodd" d="m12.5585 5.42912-3.90999 3.926c-2.176 2.18298-2.205 5.75898-.068 7.97198 1.029 1.067 2.40299 1.661 3.86699 1.673h.002c1.465.011 2.849-.56 3.895-1.61 2.174-2.179 2.203-5.754.065-7.96898zm-.127 15.57088c-2.007-.017-3.88499-.828-5.28999-2.284-2.889-2.992-2.85-7.823.087-10.76997l4.63299-4.651c.19-.19.448-.297.717-.295.269.003.525.114.711.306l4.56 4.727c2.888 2.99297 2.849 7.82497-.088 10.76897-1.429 1.434-3.321 2.214-5.328 2.198z" fill="#6b7280" fill-rule="evenodd"/></svg>

<svg width="24" height="24" viewBox="0 0 24 24" fill="none" xmlns="http://www.w3.org/2000/svg">
<g id="Icon/Outline/droplet">
<path id="Mask" fill-rule="evenodd" clip-rule="evenodd" d="M12.5585 5.42903L8.64851 9.35503C6.47251 11.538 6.44351 15.114 8.58051 17.327C9.60951 18.394 10.9835 18.988 12.4475 19H12.4495C13.9145 19.011 15.2985 18.44 16.3445 17.39C18.5185 15.211 18.5475 11.636 16.4095 9.42103L12.5585 5.42903ZM12.4315 21C10.4245 20.983 8.54651 20.172 7.14151 18.716C4.25251 15.724 4.29151 10.893 7.22851 7.94603L11.8615 3.29503C12.0515 3.10503 12.3095 2.99803 12.5785 3.00003C12.8475 3.00303 13.1035 3.11403 13.2895 3.30603L17.8495 8.03303C20.7375 11.026 20.6985 15.858 17.7615 18.802C16.3325 20.236 14.4405 21.016 12.4335 21H12.4315Z" fill="#000000"/>
</g>
</svg>
